X:1
T:Ay de mi qu'en
T:Anonymous
T:Source : Cancionero de Uppsala : Villancicos---Venetia---G.Scotto---1556. Editor : André Vierendeels (11/04/17).
T:Notes : Original clefs : C1, C2, C4 Editorial accidentals above the staff Original note values have been halved
T:Ay de mi qu'en
T:©
T:©
T:©
C:Anonymous
Z:©
%%score [ 1 [ 2 3 ] ]
L:1/8
Q:1/4=120
M:2/2
K:F
V:1 treble nm="Soprano" snm="S"
V:2 treble-8 nm="Tenor 1" snm="T 1"
V:3 treble-8 nm="Tenor 2" snm="T 2"
V:1
 z8 | A6 A2 | d6 c2 | c2 d2 B4 | A4 z4 | A4 F4 | G4 E2 D2 | E4 D4 | z8 | z4 F4 | G4 A2 c2 | %11
w: |Ay de|mi qu'en|tier- r'a- ge-|na,|qu'en tier-|r'a- ge- *|* na,||me|ve- o sin|
w: |No ay|con- *|sue- * *|lo|su- fi-|cien- * *|* te,||e-|mal que tal|
 B2 A3 G G2 | A4 z4 | z4 c4- | c2 B2 A2 G2 | F2 E2 D4 | D4 z4 | d6 c2 | B2 A2 G2 F2 | E2 A3 F G2 | %20
w: a- le- * gri-|a,|quan-|* do me ve-|re en la|mia,|quan- do|me ve- re en|la mi- * *|
w: bien de- * sui-|a,|quan-|* do me ve-|re en la|mia,|quan- do|me ve- re en|la mi- * *|
 E2 D2 E4 | D8 || A2 A2 A3 A | G2 F4 E2 | F4 G4- | G2 E2 F2 D2 | EFGE F2 ED |"^#" C2 D4 C2 | D8 |] %29
w: |a.|Y no por es-|tar au- sen-|te, de|_ mi tier- ra|e- * * * sel _ _|_ pe- *|sar.|
w: |a.|Mas por no po-|der es- *|tar, don-|* de- sta mi|bien _ _ _ _ _ _|_ pay- *|te.|
V:2
 e2 e2 f4- | f2 e2 e2 f2 | d4 e2 f2- | fedc d4 | e2 f2 e4 | d2 a4 f2 | d2 e3 A d2- | d2 c2 d4 | %8
w: Ay de mi|_ qu'en tier- r'a-|ge- * *|||||* * na,|
w: No ay con-|* sue- lo su-|fi- ci- en-|||||* * te|
 z4 B4 | c4 d2 f2- | f2 e2 f2 a2 | g2 c2 d4 | e4 g4- | g2 f2 e2 d2 | c2 d3 c c2 | d2 c2 A2 B2 | %16
w: me|ve- o sin|_ a- le- gri-||a quan-|* do me ve-|re en _ la|mi- * * *|
w: e-|mal que tal|_ bien de sui-||a, quan-|* do me ve-|re en _ la|mi- * * *|
 A2 a4 g2 | f2 e2 d2 e2 | g3 f ed d2- | d2 c2 A2 B2 |"^#" c2 d4 c2 | d8 || f2 f2 f3 f | e2 f2 g4 | %24
w: a, quan- do|me ve- re en|la _ _ _ mi-|||a.|Y no por es-|tar au- sen-|
w: a, quan- do|me ve- re en|la _ _ _ mi-|||a.|Mas por no po-|der es- *|
 f4 z4 | z2 a4 f2 | g2 g2 a2 gf | e2 d2 e4 | d8 |] %29
w: te|de mi|tier- ra e- sel _|_ _ pe-|sar.|
w: tar,|don- de-|sta mi bien _ _|_ _ pay-|te.|
V:3
 A2 A2 d4- | d2 c2 c2 d2 | B4 A4 | z2 G3 A B2 | c2 d4 c2 | d4 z2 d2 | B2 c4 B2 | A4 D4 | F4 G4 | %9
w: Ay de mi|_ qu'en tier- r'a-|ge- na,|qu'en _ _|tier- r'a- ge-|na me|ve- o sin|a- le-|gri- a,|
w: No ay con|_ su- e- *|* lo|su- * *|fi- cien- *|te e|mal que tal|bien de-|sui- a,|
 A2 c2 B3 A | G2 G2 F2 F2 | G2 A2 B4 | A4 z4 | c6 B2 | A2 G2 F2 E2 | D2 A2 F2 G2 | D4 d4- | %17
w: me ve- o _|_ sin a- le-|gri- * *|a,|quan- do|me ve- re zn|la mi- * *|a, quan-|
w: e mal que _|_ tal bien de-|sui- * *|a,|quan- do|me ve- re en|la mi- * *|a, quan-|
 d2 c2 B2 A2 | G8 | A4 D2 G2 | A2 B2 A4 | D8 || z8 | z4 c4 | A2 B4 G2 | A2 A2 d4 | c4 F2 G2 | %27
w: * do me ve-|re|en la mi-||a.||Y|no por es-|tar au- sen-|te, de mi|
w: * do me ve-|re|en la mi-||a.||Mas|por no po-|der es- tar,|don- de _|
 A2 B2 A2 A2 | D8 |] %29
w: tier- ra'e- sel pe-|sar.|
w: sta mi bien pay-|te.|

